svg/color/dba.svg

<?xml version="1.0" encoding="UTF-8" ?>
<!DOCTYPE svg PUBLIC "-//W3C//DTD SVG 1.1//EN" "http://www.w3.org/Graphics/SVG/1.1/DTD/svg11.dtd">
<svg width="250pt" height="240pt" viewBox="0 0 250 240" version="1.1" xmlns="http://www.w3.org/2000/svg">
<g id="#ffffffff">
<path fill="#ffffff" opacity="1.00" d=" M 0.00 0.00 L 250.00 0.00 L 250.00 240.00 L 0.00 240.00 L 0.00 0.00 M 127.24 98.97 C 127.32 109.46 126.97 119.96 127.41 130.43 L 126.28 130.39 C 119.14 122.95 111.30 116.22 103.97 108.96 C 95.97 101.02 87.68 93.38 79.65 85.46 C 75.26 81.21 69.13 78.55 62.96 78.96 C 52.01 79.67 42.52 89.94 43.17 100.98 C 43.28 113.70 42.78 126.43 43.48 139.14 C 43.80 136.05 44.12 132.72 46.16 130.22 C 48.48 127.16 52.86 126.23 56.41 127.40 C 59.89 128.21 62.38 130.90 64.91 133.23 C 86.42 153.67 108.00 174.04 129.26 194.74 C 132.92 198.13 136.34 202.04 141.13 203.85 C 148.78 207.24 158.32 205.08 164.01 199.01 C 168.26 194.88 170.38 188.89 170.27 183.02 C 170.23 171.23 170.31 159.43 170.21 147.65 C 170.35 134.09 170.22 120.52 170.26 106.96 C 170.21 102.26 170.53 97.43 169.10 92.89 C 166.34 84.03 157.30 77.43 147.94 78.05 C 136.93 78.03 127.11 87.96 127.24 98.97 Z" />
</g>
<g id="#212121ff">
<path fill="#212121" opacity="1.00" d=" M 127.24 98.97 C 127.11 87.96 136.93 78.03 147.94 78.05 C 157.30 77.43 166.34 84.03 169.10 92.89 C 170.53 97.43 170.21 102.26 170.26 106.96 C 170.22 120.52 170.35 134.09 170.21 147.65 C 168.99 151.81 166.82 156.57 162.01 157.34 C 155.94 158.65 150.96 153.92 147.03 149.99 C 140.32 143.24 133.11 137.01 126.28 130.39 L 127.41 130.43 C 126.97 119.96 127.32 109.46 127.24 98.97 Z" />
</g>
<g id="#000000ff">
<path fill="#000000" opacity="1.00" d=" M 43.17 100.98 C 42.52 89.94 52.01 79.67 62.96 78.96 C 69.13 78.55 75.26 81.21 79.65 85.46 C 87.68 93.38 95.97 101.02 103.97 108.96 C 111.30 116.22 119.14 122.95 126.28 130.39 C 133.11 137.01 140.32 143.24 147.03 149.99 C 150.96 153.92 155.94 158.65 162.01 157.34 C 166.82 156.57 168.99 151.81 170.21 147.65 C 170.31 159.43 170.23 171.23 170.27 183.02 C 170.38 188.89 168.26 194.88 164.01 199.01 C 158.32 205.08 148.78 207.24 141.13 203.85 C 136.34 202.04 132.92 198.13 129.26 194.74 C 108.00 174.04 86.42 153.67 64.91 133.23 C 62.38 130.90 59.89 128.21 56.41 127.40 C 52.86 126.23 48.48 127.16 46.16 130.22 C 44.12 132.72 43.80 136.05 43.48 139.14 C 42.78 126.43 43.28 113.70 43.17 100.98 Z" />
</g>
</svg>

<?xml version="1.0" encoding="utf-8"?>
<!-- Generator: Adobe Illustrator 26.0.3, SVG Export Plug-In . SVG Version: 6.00 Build 0)  -->
<svg version="1.1" id="Layer_1" xmlns="http://www.w3.org/2000/svg" xmlns:xlink="http://www.w3.org/1999/xlink" x="0px" y="0px"
	 viewBox="0 0 250 240" style="enable-background:new 0 0 250 240;" xml:space="preserve">
<style type="text/css">
	.st0{fill:#FFFFFF;}
	.st1{fill:#212121;}
</style>
<circle class="st0" cx="125" cy="120" r="125"/>
<g id="_x23_212121ff">
	<path class="st1" d="M127.2,99c-0.1-11,9.7-20.9,20.7-20.9c9.4-0.6,18.4,6,21.2,14.8c1.4,4.5,1.1,9.4,1.2,14.1
		c0,13.6,0.1,27.1,0,40.7c-1.2,4.2-3.4,8.9-8.2,9.7c-6.1,1.3-11-3.4-15-7.3c-6.7-6.8-13.9-13-20.8-19.6l1.1,0
		C127,120,127.3,109.5,127.2,99z"/>
</g>
<g id="_x23_000000ff">
	<path d="M43.2,101C42.5,89.9,52,79.7,63,79c6.2-0.4,12.3,2.2,16.7,6.5C87.7,93.4,96,101,104,109c7.3,7.3,15.2,14,22.3,21.4
		c6.8,6.6,14,12.9,20.8,19.6c3.9,3.9,8.9,8.7,15,7.3c4.8-0.8,7-5.5,8.2-9.7c0.1,11.8,0,23.6,0.1,35.4c0.1,5.9-2,11.9-6.3,16
		c-5.7,6.1-15.2,8.2-22.9,4.8c-4.8-1.8-8.2-5.7-11.9-9.1C108,174,86.4,153.7,64.9,133.2c-2.5-2.3-5-5-8.5-5.8
		c-3.5-1.2-7.9-0.2-10.2,2.8c-2,2.5-2.4,5.8-2.7,8.9C42.8,126.4,43.3,113.7,43.2,101z"/>
</g>
</svg>
